assets/Mount fuji/Flat/mount_fuji_flat.svg

<svg width="32" height="32" viewBox="0 0 32 32" fill="none" xmlns="http://www.w3.org/2000/svg">
<path d="M19.31 12.9201L14.62 12.8901L7.32 16.6201L2 23.0701V27.9501C2 28.5301 2.47 29.0001 3.04 29.0001H27.2067C27.7867 29.0001 28.2467 28.5301 28.2467 27.9601V23.0701L19.31 12.9201Z" fill="#321B41"/>
<path d="M16 15L17 19C17.51 20.65 18.7 21 20 21H20.05C21.02 21 21.99 21.64 22.56 22.5L27 29L28.93 29.02C29.52 29.02 30 28.54 30 27.95V23.07L24.82 16.2L16 15Z" fill="#6B438B"/>
<path d="M20.73 10.76C20.37 10.28 19.87 10 19.33 10H14.8472C13.4546 14.7476 14.6078 13.2566 15.7 16.99C17.42 16.99 17.42 15.99 19.14 15.99C20.86 15.99 20.86 16.99 22.59 16.99C23.78 16.99 24.15 16.51 24.83 16.22L20.73 10.76Z" fill="#F4F4F4"/>
<path d="M18.0002 10L17.6358 10.1215C16.1486 10.6172 15.2938 12.1743 15.674 13.6951L16.4767 16.9058C16.2597 16.9581 16.0074 16.99 15.7003 16.99C14.8341 16.99 14.4016 16.7393 13.9697 16.4889C13.5391 16.2393 13.1091 15.99 12.2503 15.99C11.3841 15.99 10.9516 16.2407 10.5197 16.4911C10.0891 16.7407 9.65907 16.99 8.80031 16.99C8.10031 16.99 7.69031 16.82 7.32031 16.62L12.3003 10.59C12.6403 10.21 13.0903 10 13.5503 10H18.0002Z" fill="#CDC4D6"/>
</svg>

<svg xmlns="http://www.w3.org/2000/svg" width="32" height="32" fill="none"><path fill="#321B41" d="m19.31 12.92-4.69-.03-7.3 3.73L2 23.07v4.88c0 .58.47 1.05 1.04 1.05h24.167c.58 0 1.04-.47 1.04-1.04v-4.89L19.31 12.92Z"/><path fill="#6B438B" d="m16 15 1 4c.51 1.65 1.7 2 3 2h.05c.97 0 1.94.64 2.51 1.5L27 29l1.93.02c.59 0 1.07-.48 1.07-1.07v-4.88l-5.18-6.87L16 15Z"/><path fill="#F4F4F4" d="M20.73 10.76c-.36-.48-.86-.76-1.4-.76h-4.483c-1.392 4.748-.24 3.257.853 6.99 1.72 0 1.72-1 3.44-1s1.72 1 3.45 1c1.19 0 1.56-.48 2.24-.77l-4.1-5.46Z"/><path fill="#CDC4D6" d="m18 10-.364.121a3 3 0 0 0-1.962 3.574l.803 3.21c-.217.053-.47.085-.777.085-.866 0-1.298-.25-1.73-.501-.43-.25-.86-.499-1.72-.499-.866 0-1.298.25-1.73.501-.43.25-.86.499-1.72.499-.7 0-1.11-.17-1.48-.37l4.98-6.03c.34-.38.79-.59 1.25-.59H18Z"/></svg>
